!!!OTL: Orakaboai
!!!ONR: No. 14
!! From Jaap Kunst "Music in New Guinea; Three Studies"
!! Verhandelingen van het Koninkluijk Instituut voor Taal-,
!! Land- end Volkenkunde, Deel 53
!! English translation and correction by Jeune Scott-Kemball
!! Publication Place: 'S-Gravenhage
!! Publisher: Martinus Nijhoff, 1967
!! From Chapter II: Songs of New Guinea, page 93
!!PLACE: Pacifica, New Guinea, Humboldt Bay
!!SINGER: Poreo
!!!PSX: M
!!!ENCODER: D. Huron
**kern
*clefF4
*k[b-]
*>1st strophe
*MX
8c
8.c
8.c
=1
*M5/8
8d
8d
8d
8d
16d
16d
=2
*M6/8
[4d
16d]
16c
4c
16c
16c
=3
*M9/8
4c
8d
8B-
8G
16B-
16B-
(4B-
16.G)
32G
=4
*M6/8
4F
16F
16F
4F
16F
16G
=5
4B-
16B-
16B-
4B-
16B-
16B-
=6
8G
8G
8G
8G
4G
16G
16G
=7
4F
16F
16F
4F
=8||
*>4th strophe
*M3/4
2r
8c
8c
=9
*M2/4
8d
8d
8d
8d
=10
3d
6c
=11
4c
8.B-
16G
=12
*M3/4
4G
4F
8.F
16F
=13
4F
4F
8.G
16G
=14
4B-
4B-
8B-
8B-
=15
8B-
8B-
8G
8G
8.G
16G
=16
4G
4F
8F
8F
=17
4.F
=18||
*>5th strophe
*M3/4
16c
16c
8c
8c
=19
(4d
8c)
8r
8c
8c
=20
2c
12c
12.c
([24B-
=21
4B-]
8G)
8r
8B-
8B-
=22
[2B-
12B-]
12.G
24G
=23
2F
8F
8F
=24
2F
8G
8G
=25
2B-
8B-
8B-
=26
*M4/4
2B-
8B-
8B-
8G
8G
=27
*M3/4
(4G
8F)
8r
8F
8F
=28
4.F
==|!
*-
